X: 8079
T: Conquest & Triumph
R: waltz
M: 3/4
K: Dmajor
A2|d2e2ce|d2A2A2|Bdce df|ced2 fa|g2efed|c2a2gf|e2cdcB|A2 fefg||
edc2eg|fed2ed|c2BABc|A4GF|E2G2B2|dec2ed|cdB2dc|BcA2fe||
decd ef|gaf2cd|egfe dc|B4d2|e2a2fd|e2A2g2|f2d2Be|c2A2ag||
fdcd ec|d2A2A2|Bdce df|e2A2F2Bcde fd|cdef ge|faA2c2|d6||

